; generated by PrusaSlicer 2.6.1+MacOS-arm64 on 2023-09-28 at 07:46:16 UTC

; 

; external perimeters extrusion width = 0.42mm
; perimeters extrusion width = 0.44mm
; infill extrusion width = 0.44mm
; solid infill extrusion width = 0.44mm
; top infill extrusion width = 0.40mm
; support material extrusion width = 0.36mm
; first layer extrusion width = 0.42mm

M201 X500 Y500 Z100 E5000 ; sets maximum accelerations, mm/sec^2
M203 X500 Y500 Z10 E60 ; sets maximum feedrates, mm / sec
M204 S500 T1000 ; sets acceleration (S) and retract acceleration (R), mm/sec^2
M205 X8.00 Y8.00 Z0.40 E5.00 ; sets the jerk limits, mm/sec
M205 S0 T0 ; sets the minimum extruding and travel feed rate, mm/sec
;TYPE:Custom
G90 ; use absolute coordinates
M83 ; extruder relative mode
M109 S155 ; set temporary nozzle temp to prevent oozing during homing
M190 S60 ; wait for bed temp to stabilize
M140 S60 ; set final bed temp
G28 ; home all axis
G1 Z50 F240
G1 X2.0 Y10 F3000
M104 S205 ; set final nozzle temp
M109 S205 ; wait for nozzle temp to stabilize
G1 Z0.28 F240
G92 E0
G1 X2.0 Y140 E10 F1500 ; prime the nozzle
G1 X2.3 Y140 F5000
G92 E0
G1 X2.3 Y10 E10 F1200 ; prime the nozzle
G92 E0
G21 ; set units to millimeters
G90 ; use absolute coordinates
M83 ; use relative distances for extrusion
; Filament gcode
M107
;LAYER_CHANGE
;Z:0.2
;HEIGHT:0.2
;BEFORE_LAYER_CHANGE
G92 E0
;0.2


G1 E-5 F3600
G1 Z.2 F9000
;AFTER_LAYER_CHANGE
;0.2
G1 X98.913 Y78.284
G1 E5 F2400
M204 S500
;TYPE:Skirt/Brim
;WIDTH:0.42
G1 F1200
G1 X100.014 Y76.961 E.05397
G1 X102.273 Y76.205 E.07469
G1 X110.881 Y76.205 E.2699
G1 X112.557 Y76.6 E.05399
G1 X113.88 Y77.701 E.05397
G1 X114.635 Y79.96 E.07468
G1 X114.635 Y112.739 E1.02776
G1 X114.241 Y114.414 E.05395
G1 X113.139 Y115.738 E.05401
G1 X110.881 Y116.493 E.07465
G1 X102.273 Y116.493 E.2699
G1 X100.597 Y116.098 E.05399
G1 X99.274 Y114.997 E.05397
G1 X98.519 Y112.739 E.07465
G1 X98.519 Y79.96 E1.02776
G1 X98.899 Y78.342 E.05211
G1 X99.275 Y78.436 F9000
G1 F1200
G1 X99.29 Y78.376 E.00194
G1 X100.38 Y77.163 E.05113
G1 X102.273 Y76.582 E.06209
G1 X110.881 Y76.582 E.2699
G1 X112.464 Y76.977 E.05116
G1 X113.678 Y78.067 E.05116
G1 X114.258 Y79.96 E.06208
G1 X114.258 Y112.739 E1.02776
G1 X113.864 Y114.322 E.05115
G1 X112.774 Y115.536 E.05116
G1 X110.881 Y116.116 E.06208
G1 X102.273 Y116.116 E.2699
G1 X100.69 Y115.722 E.05115
G1 X99.476 Y114.632 E.05116
G1 X98.896 Y112.739 E.06208
G1 X98.896 Y79.96 E1.02776
G1 X99.26 Y78.494 E.04736
; printing object cylinderTorsdag.stl id:0 copy 0
G1 E-3.5 F3600
;WIPE_START
G1 F7200
G1 X99.29 Y78.376 E-.05783
G1 X100.38 Y77.163 E-.77462
G1 X101.724 Y76.751 E-.66755
;WIPE_END
G1 X110.881 Y112.739 F9000
G1 E5 F2400
;TYPE:Support material
G1 F1200
G1 X102.273 Y112.739 E.2699
G1 X102.273 Y79.96 E1.02776
G1 X110.881 Y79.96 E.2699
G1 X110.881 Y112.682 E1.02598
G1 E-3.5 F3600
;WIPE_START
G1 F7200
G1 X110.881 Y109.524 E-1.5
;WIPE_END
G1 X105.115 Y83.658 F9000
G1 E5 F2400
G1 F1200
G1 X105.386 Y83.387 E.01202
G1 X107.768 Y83.387 E.07469
G1 X108.038 Y83.658 E.01199
G1 X108.039 Y109.041 E.79587
G1 X107.768 Y109.311 E.01199
G1 X105.386 Y109.311 E.07469
G1 X105.115 Y109.041 E.01199
G1 X105.115 Y83.714 E.79411
G1 E-3.5 F3600
;WIPE_START
G1 F7200
G1 X105.115 Y86.872 E-1.5
;WIPE_END
G1 X110.348 Y112.569 F9000
G1 E5 F2400
G1 F1200
G1 X110.348 Y80.299 E1.0118
G1 X109.929 Y80.299 E.01314
G1 X109.929 Y112.399 E1.00647
G1 X109.51 Y112.399 E.01314
G1 X109.51 Y80.299 E1.00647
G1 X109.091 Y80.299 E.01314
G1 X109.091 Y112.399 E1.00647
G1 X108.672 Y112.399 E.01314
G1 X108.672 Y80.299 E1.00647
G1 X108.253 Y80.299 E.01314
G1 X108.253 Y112.399 E1.00647
G1 X107.834 Y112.399 E.01314
G1 X107.834 Y109.651 E.08616
G1 X107.415 Y109.651 E.01314
G1 X107.415 Y112.399 E.08616
G1 X106.996 Y112.399 E.01314
G1 X106.996 Y109.651 E.08616
G1 X106.577 Y109.651 E.01314
G1 X106.577 Y112.399 E.08616
G1 X106.158 Y112.399 E.01314
G1 X106.158 Y109.651 E.08616
G1 X105.739 Y109.651 E.01314
G1 X105.739 Y112.399 E.08616
G1 X105.32 Y112.399 E.01314
G1 X105.32 Y109.481 E.09149
G1 E-3.5 F3600
;WIPE_START
G1 F7200
G1 X105.32 Y112.399 E-1.38605
G1 X105.56 Y112.399 E-.11395
;WIPE_END
G1 X107.834 Y83.217 F9000
G1 E5 F2400
G1 F1200
G1 X107.834 Y80.299 E.09149
G1 X107.415 Y80.299 E.01314
G1 X107.415 Y83.048 E.08619
G1 X106.996 Y83.048 E.01314
G1 X106.996 Y80.299 E.08619
G1 X106.577 Y80.299 E.01314
G1 X106.577 Y83.048 E.08619
G1 X106.158 Y83.048 E.01314
G1 X106.158 Y80.299 E.08619
G1 X105.739 Y80.299 E.01314
G1 X105.739 Y83.048 E.08619
G1 X105.32 Y83.048 E.01314
G1 X105.32 Y80.299 E.08619
G1 X104.901 Y80.299 E.01314
G1 X104.901 Y112.399 E1.00647
G1 X104.482 Y112.399 E.01314
G1 X104.482 Y80.299 E1.00647
G1 X104.063 Y80.299 E.01314
G1 X104.063 Y112.399 E1.00647
G1 X103.644 Y112.399 E.01314
G1 X103.644 Y80.299 E1.00647
G1 X103.225 Y80.299 E.01314
G1 X103.225 Y112.399 E1.00647
G1 X102.806 Y112.399 E.01314
G1 X102.806 Y80.129 E1.0118
G1 E-3.5 F3600
;WIPE_START
G1 F7200
G1 X102.806 Y83.287 E-1.5
;WIPE_END
G1 X106.326 Y84.598 F9000
G1 E5 F2400
;TYPE:Perimeter
;WIDTH:0.544381
G1 F1200
G1 X106.828 Y84.598 E.02093
G1 X106.828 Y108.1 E.97995
G1 X106.326 Y108.1 E.02093
G1 X106.326 Y84.658 E.97745
G1 X105.887 Y84.159 F9000
;TYPE:External perimeter
;WIDTH:0.419999
G1 F1200
G1 X107.267 Y84.159 E.04327
G1 X107.267 Y108.539 E.76442
G1 X105.887 Y108.539 E.04327
G1 X105.887 Y84.219 E.76254
G1 X106.237 Y84.353 F9000
; stop printing object cylinderTorsdag.stl id:0 copy 0
M106 S255
;LAYER_CHANGE
;Z:0.28
;HEIGHT:0.08
;BEFORE_LAYER_CHANGE
G92 E0
;0.28


G1 E-3.5 F3600
;WIPE_START
G1 F7200
G1 X107.267 Y84.159 E-.65612
G1 X107.267 Y85.936 E-.84388
;WIPE_END
G1 Z.28 F9000
;AFTER_LAYER_CHANGE
;0.28
M104 S200 ; set temperature
G1 X114.635 Y85.936
G1 E5 F2400
;TYPE:Skirt/Brim
;WIDTH:0.42
G1 F1099
G1 X114.635 Y112.739 E.35911
G1 X114.241 Y114.414 E.02305
G1 X113.139 Y115.738 E.02308
G1 X110.881 Y116.493 E.0319
G1 X102.273 Y116.493 E.11533
G1 X100.597 Y116.098 E.02307
G1 X99.274 Y114.997 E.02306
G1 X98.519 Y112.739 E.0319
G1 X98.519 Y79.96 E.43918
G1 X98.913 Y78.284 E.02307
G1 X100.014 Y76.961 E.02306
G1 X102.273 Y76.205 E.03192
G1 X110.881 Y76.205 E.11533
G1 X112.557 Y76.6 E.02307
G1 X113.88 Y77.701 E.02306
G1 X114.635 Y79.96 E.03191
G1 X114.635 Y85.876 E.07926
G1 X114.258 Y85.876 F9000
G1 F1099
G1 X114.258 Y112.739 E.35992
G1 X113.864 Y114.322 E.02186
G1 X112.774 Y115.536 E.02186
G1 X110.881 Y116.116 E.02653
G1 X102.273 Y116.116 E.11533
G1 X100.69 Y115.722 E.02186
G1 X99.476 Y114.632 E.02186
G1 X98.896 Y112.739 E.02653
G1 X98.896 Y79.96 E.43918
G1 X99.29 Y78.376 E.02187
G1 X100.38 Y77.163 E.02185
G1 X102.273 Y76.582 E.02653
G1 X110.881 Y76.582 E.11533
G1 X112.464 Y76.977 E.02186
G1 X113.678 Y78.067 E.02186
G1 X114.258 Y79.96 E.02653
G1 X114.258 Y85.816 E.07846
; printing object cylinderTorsdag.stl id:0 copy 0
G1 E-3.5 F3600
;WIPE_START
G1 F7200
G1 X114.258 Y88.974 E-1.5
;WIPE_END
G1 X106.954 Y84.472 F9000
G1 E5 F2400
;TYPE:Perimeter
;WIDTH:0.439999
G1 F1099
G1 X106.954 Y108.226 E.33406
G1 X106.2 Y108.226 E.0106
G1 X106.2 Y84.472 E.33406
G1 X106.894 Y84.472 E.00976
G1 X107.367 Y84.059 F9000
;TYPE:External perimeter
;WIDTH:0.419999
G1 F1099
G1 X107.367 Y108.639 E.32933
G1 X105.787 Y108.639 E.02117
G1 X105.787 Y84.059 E.32933
G1 X107.307 Y84.059 E.02037
G1 X107.358 Y84.459 F9000
G1 E-3.5 F3600
;WIPE_START
G1 F7200
G1 X107.315 Y87.217 E-1.5
;WIPE_END
G1 X106.577 Y107.849 F9000
G1 E5 F2400
;TYPE:Perimeter
;WIDTH:0.348676
G1 F1099
G1 X106.577 Y84.849 E.2536
; stop printing object cylinderTorsdag.stl id:0 copy 0
;LAYER_CHANGE
;Z:0.36
;HEIGHT:0.08
;BEFORE_LAYER_CHANGE
G92 E0
;0.36


G1 E-3.5 F3600
;WIPE_START
G1 F7200
G1 X106.577 Y88.007 E-1.5
;WIPE_END
G1 Z.36 F9000
;AFTER_LAYER_CHANGE
;0.36
; printing object cylinderTorsdag.stl id:0 copy 0
G1 X106.2 Y84.472
G1 E5 F2400
;WIDTH:0.439999
G1 F900
G1 X106.954 Y84.472 E.0106
G1 X106.954 Y108.226 E.33406
G1 X106.2 Y108.226 E.0106
G1 X106.2 Y84.532 E.33322
G1 X105.787 Y84.059 F9000
;TYPE:External perimeter
;WIDTH:0.419999
G1 F900
G1 X107.367 Y84.059 E.02117
G1 X107.367 Y108.639 E.32933
G1 X105.787 Y108.639 E.02117
G1 X105.787 Y84.119 E.32852
G1 X106.137 Y84.252 F9000
G1 E-3.5 F3600
;WIPE_START
G1 F7200
G1 X107.367 Y84.059 E-.75104
G1 X107.367 Y85.636 E-.74896
;WIPE_END
G1 X106.577 Y107.849 F9000
G1 E5 F2400
;TYPE:Perimeter
;WIDTH:0.348676
G1 F900
G1 X106.577 Y84.849 E.2536
; stop printing object cylinderTorsdag.stl id:0 copy 0
;LAYER_CHANGE
;Z:0.44
;HEIGHT:0.08
;BEFORE_LAYER_CHANGE
G92 E0
;0.44


G1 E-3.5 F3600
;WIPE_START
G1 F7200
G1 X106.577 Y88.007 E-1.5
;WIPE_END
G1 Z.44 F9000
;AFTER_LAYER_CHANGE
;0.44
; printing object cylinderTorsdag.stl id:0 copy 0
G1 X106.2 Y84.472
G1 E5 F2400
;WIDTH:0.439999
G1 F900
G1 X106.954 Y84.472 E.0106
G1 X106.954 Y108.226 E.33406
G1 X106.2 Y108.226 E.0106
G1 X106.2 Y84.532 E.33322
G1 X105.787 Y84.059 F9000
;TYPE:External perimeter
;WIDTH:0.419999
G1 F900
G1 X107.367 Y84.059 E.02117
G1 X107.367 Y108.639 E.32933
G1 X105.787 Y108.639 E.02117
G1 X105.787 Y84.119 E.32852
G1 X106.137 Y84.252 F9000
G1 E-3.5 F3600
;WIPE_START
G1 F7200
G1 X107.367 Y84.059 E-.75104
G1 X107.367 Y85.636 E-.74896
;WIPE_END
G1 X106.577 Y107.849 F9000
G1 E5 F2400
;TYPE:Perimeter
;WIDTH:0.348676
G1 F900
G1 X106.577 Y84.849 E.2536
; stop printing object cylinderTorsdag.stl id:0 copy 0
;LAYER_CHANGE
;Z:0.507647
;HEIGHT:0.067647
;BEFORE_LAYER_CHANGE
G92 E0
;0.507647


G1 E-3.5 F3600
;WIPE_START
G1 F7200
G1 X106.577 Y88.007 E-1.5
;WIPE_END
G1 Z.508 F9000
;AFTER_LAYER_CHANGE
;0.507647
; printing object cylinderTorsdag.stl id:0 copy 0
G1 X105.234 Y83.092
G1 E5 F2400
;TYPE:Support material
;WIDTH:0.36
;HEIGHT:0.307647
G1 F900
G1 X105.234 Y83.593 E.01884
G1 X105.401 Y83.426 E.00888
G1 X107.752 Y83.426 E.0884
G1 X107.92 Y83.593 E.00891
G1 X107.92 Y82.921 E.02527
G1 X105.234 Y82.921 E.101
G1 X105.234 Y109.606 F9000
G1 F900
G1 X105.234 Y109.105 E.01884
G1 X105.401 Y109.273 E.00891
G1 X107.752 Y109.273 E.0884
G1 X107.92 Y109.105 E.00893
G1 X107.92 Y109.777 E.02527
G1 X105.234 Y109.777 E.101
; stop printing object cylinderTorsdag.stl id:0 copy 0
;LAYER_CHANGE
;Z:0.52
;HEIGHT:0.0123529
;BEFORE_LAYER_CHANGE
G92 E0
;0.52


G1 E-3.5 F3600
;WIPE_START
G1 F7200
G1 X107.92 Y109.777 E-1.27585
G1 X107.92 Y109.305 E-.22415
;WIPE_END
G1 Z.52 F9000
;AFTER_LAYER_CHANGE
;0.52
; printing object cylinderTorsdag.stl id:0 copy 0
G1 X106.954 Y108.226
G1 E5 F2400
;TYPE:Perimeter
;WIDTH:0.439999
;HEIGHT:0.08
G1 F900
G1 X106.2 Y108.226 E.0106
G1 X106.2 Y84.472 E.33406
G1 X106.954 Y84.472 E.0106
G1 X106.954 Y108.166 E.33322
G1 X107.367 Y108.639 F9000
;TYPE:External perimeter
;WIDTH:0.419999
G1 F900
G1 X105.787 Y108.639 E.02117
G1 X105.787 Y84.059 E.32933
G1 X107.367 Y84.059 E.02117
G1 X107.367 Y108.579 E.32852
G1 X107.016 Y108.447 F9000
G1 X106.577 Y107.849
;TYPE:Perimeter
;WIDTH:0.348676
G1 F900
G1 X106.577 Y84.849 E.2536
; stop printing object cylinderTorsdag.stl id:0 copy 0
;LAYER_CHANGE
;Z:0.6
;HEIGHT:0.08
;BEFORE_LAYER_CHANGE
G92 E0
;0.6


G1 E-3.5 F3600
;WIPE_START
G1 F7200
G1 X106.577 Y88.007 E-1.5
;WIPE_END
G1 Z.6 F9000
;AFTER_LAYER_CHANGE
;0.6
; printing object cylinderTorsdag.stl id:0 copy 0
G1 X106.2 Y84.472
G1 E5 F2400
;WIDTH:0.439999
G1 F900
G1 X106.954 Y84.472 E.0106
G1 X106.954 Y108.226 E.33406
G1 X106.2 Y108.226 E.0106
G1 X106.2 Y84.532 E.33322
G1 X105.787 Y84.059 F9000
;TYPE:External perimeter
;WIDTH:0.419999
G1 F900
G1 X107.367 Y84.059 E.02117
G1 X107.367 Y108.639 E.32933
G1 X105.787 Y108.639 E.02117
G1 X105.787 Y84.119 E.32852
G1 X106.137 Y84.252 F9000
G1 E-3.5 F3600
;WIPE_START
G1 F7200
G1 X107.367 Y84.059 E-.75104
G1 X107.367 Y85.636 E-.74896
;WIPE_END
G1 X106.577 Y107.849 F9000
G1 E5 F2400
;TYPE:Perimeter
;WIDTH:0.348676
G1 F900
G1 X106.577 Y84.849 E.2536
; stop printing object cylinderTorsdag.stl id:0 copy 0
;LAYER_CHANGE
;Z:0.68
;HEIGHT:0.08
;BEFORE_LAYER_CHANGE
G92 E0
;0.68


G1 E-3.5 F3600
;WIPE_START
G1 F7200
G1 X106.577 Y88.007 E-1.5
;WIPE_END
G1 Z.68 F9000
;AFTER_LAYER_CHANGE
;0.68
; printing object cylinderTorsdag.stl id:0 copy 0
G1 X106.2 Y84.472
G1 E5 F2400
;WIDTH:0.439999
G1 F900
G1 X106.954 Y84.472 E.0106
G1 X106.954 Y108.226 E.33406
G1 X106.2 Y108.226 E.0106
G1 X106.2 Y84.532 E.33322
G1 X105.787 Y84.059 F9000
;TYPE:External perimeter
;WIDTH:0.419999
G1 F900
G1 X107.367 Y84.059 E.02117
G1 X107.367 Y108.639 E.32933
G1 X105.787 Y108.639 E.02117
G1 X105.787 Y84.119 E.32852
G1 X106.137 Y84.252 F9000
G1 E-3.5 F3600
;WIPE_START
G1 F7200
G1 X107.367 Y84.059 E-.75104
G1 X107.367 Y85.636 E-.74896
;WIPE_END
G1 X106.577 Y107.849 F9000
G1 E5 F2400
;TYPE:Perimeter
;WIDTH:0.348674
G1 F900
G1 X106.577 Y84.849 E.2536
; stop printing object cylinderTorsdag.stl id:0 copy 0
;LAYER_CHANGE
;Z:0.76
;HEIGHT:0.08
;BEFORE_LAYER_CHANGE
G92 E0
;0.76


G1 E-3.5 F3600
;WIPE_START
G1 F7200
G1 X106.577 Y88.007 E-1.5
;WIPE_END
G1 Z.76 F9000
;AFTER_LAYER_CHANGE
;0.76
; printing object cylinderTorsdag.stl id:0 copy 0
G1 X106.2 Y84.472
G1 E5 F2400
;WIDTH:0.439999
G1 F900
G1 X106.954 Y84.472 E.0106
G1 X106.954 Y108.226 E.33406
G1 X106.2 Y108.226 E.0106
G1 X106.2 Y84.532 E.33322
G1 X105.787 Y84.059 F9000
;TYPE:External perimeter
;WIDTH:0.419999
G1 F900
G1 X107.367 Y84.059 E.02117
G1 X107.367 Y108.639 E.32933
G1 X105.787 Y108.639 E.02117
G1 X105.787 Y84.119 E.32852
G1 X106.137 Y84.252 F9000
G1 E-3.5 F3600
;WIPE_START
G1 F7200
G1 X107.367 Y84.059 E-.75104
G1 X107.367 Y85.636 E-.74896
;WIPE_END
G1 X106.577 Y107.849 F9000
G1 E5 F2400
;TYPE:Perimeter
;WIDTH:0.348676
G1 F900
G1 X106.577 Y84.849 E.2536
; stop printing object cylinderTorsdag.stl id:0 copy 0
;LAYER_CHANGE
;Z:0.815294
;HEIGHT:0.0552942
;BEFORE_LAYER_CHANGE
G92 E0
;0.815294


G1 E-3.5 F3600
;WIPE_START
G1 F7200
G1 X106.577 Y88.007 E-1.5
;WIPE_END
G1 Z.815 F9000
;AFTER_LAYER_CHANGE
;0.815294
; printing object cylinderTorsdag.stl id:0 copy 0
G1 X105.234 Y83.092
G1 E5 F2400
;TYPE:Support material
;WIDTH:0.36
;HEIGHT:0.307647
G1 F900
G1 X105.234 Y83.593 E.01884
G1 X105.401 Y83.426 E.00888
G1 X107.752 Y83.426 E.0884
G1 X107.92 Y83.593 E.00891
G1 X107.92 Y82.921 E.02527
G1 X105.234 Y82.921 E.101
G1 X105.234 Y109.606 F9000
G1 F900
G1 X105.234 Y109.105 E.01884
G1 X105.401 Y109.273 E.00891
G1 X107.752 Y109.273 E.0884
G1 X107.92 Y109.105 E.00893
G1 X107.92 Y109.777 E.02527
G1 X105.234 Y109.777 E.101
; stop printing object cylinderTorsdag.stl id:0 copy 0
;LAYER_CHANGE
;Z:0.84
;HEIGHT:0.0247058
;BEFORE_LAYER_CHANGE
G92 E0
;0.84


G1 E-3.5 F3600
;WIPE_START
G1 F7200
G1 X107.92 Y109.777 E-1.27585
G1 X107.92 Y109.305 E-.22415
;WIPE_END
G1 Z.84 F9000
;AFTER_LAYER_CHANGE
;0.84
; printing object cylinderTorsdag.stl id:0 copy 0
G1 X106.954 Y108.226
G1 E5 F2400
;TYPE:Perimeter
;WIDTH:0.439999
;HEIGHT:0.08
G1 F900
G1 X106.2 Y108.226 E.0106
G1 X106.2 Y84.472 E.33406
G1 X106.954 Y84.472 E.0106
G1 X106.954 Y108.166 E.33322
G1 X107.367 Y108.639 F9000
;TYPE:External perimeter
;WIDTH:0.419999
G1 F900
G1 X105.787 Y108.639 E.02117
G1 X105.787 Y84.059 E.32933
G1 X107.367 Y84.059 E.02117
G1 X107.367 Y108.579 E.32852
G1 X107.016 Y108.447 F9000
G1 X106.577 Y107.849
;TYPE:Perimeter
;WIDTH:0.348676
G1 F900
G1 X106.577 Y84.849 E.2536
; stop printing object cylinderTorsdag.stl id:0 copy 0
;LAYER_CHANGE
;Z:0.92
;HEIGHT:0.08
;BEFORE_LAYER_CHANGE
G92 E0
;0.92


G1 E-3.5 F3600
;WIPE_START
G1 F7200
G1 X106.577 Y88.007 E-1.5
;WIPE_END
G1 Z.92 F9000
;AFTER_LAYER_CHANGE
;0.92
; printing object cylinderTorsdag.stl id:0 copy 0
G1 X106.2 Y84.472
G1 E5 F2400
;WIDTH:0.439999
G1 F900
G1 X106.954 Y84.472 E.0106
G1 X106.954 Y108.226 E.33406
G1 X106.2 Y108.226 E.0106
G1 X106.2 Y84.532 E.33322
G1 X105.787 Y84.059 F9000
;TYPE:External perimeter
;WIDTH:0.419999
G1 F900
G1 X107.367 Y84.059 E.02117
G1 X107.367 Y108.639 E.32933
G1 X105.787 Y108.639 E.02117
G1 X105.787 Y84.119 E.32852
G1 X106.137 Y84.252 F9000
G1 E-3.5 F3600
;WIPE_START
G1 F7200
G1 X107.367 Y84.059 E-.75104
G1 X107.367 Y85.636 E-.74896
;WIPE_END
G1 X106.577 Y107.849 F9000
G1 E5 F2400
;TYPE:Perimeter
;WIDTH:0.348676
G1 F900
G1 X106.577 Y84.849 E.2536
; stop printing object cylinderTorsdag.stl id:0 copy 0
;LAYER_CHANGE
;Z:1
;HEIGHT:0.08
;BEFORE_LAYER_CHANGE
G92 E0
;1


G1 E-3.5 F3600
;WIPE_START
G1 F7200
